src/icons/service-ogz.svg

<?xml version="1.0" encoding="utf-8"?>
<!-- Generator: Adobe Illustrator 20.1.0, SVG Export Plug-In . SVG Version: 6.00 Build 0)  -->
<svg version="1.1" id="Layer_1" xmlns="http://www.w3.org/2000/svg" xmlns:xlink="http://www.w3.org/1999/xlink" x="0px" y="0px"
	 viewBox="0 0 12 14" style="enable-background:new 0 0 12 14;" xml:space="preserve">
<style type="text/css">
	.st0{fill:#71B9D9;}
	.st1{fill:#FEFEFE;}
</style>
<title>HDL/Icon/Standard/Service/logz</title>
<desc>Created with Sketch.</desc>
<g id="Colors">
	<g id="Service-icons" transform="translate(-120.000000, -1158.000000)">
		<g id="Logz_1_" transform="translate(101.000000, 1141.000000)">
			<g id="HDL_x2F_Icon_x2F_Standard_x2F_Service_x2F_logz" transform="translate(19.000000, 17.000000)">
				<g id="Logz">
					<path id="Path" class="st0" d="M6.2,0.3C6.6,0.5,7,0.7,7.4,1C8.2,1.4,9,1.9,9.7,2.4c0.6,0.3,1.2,0.7,1.8,1
						c0.2,0.1,0.4,0.4,0.4,0.6v6c0,0.3-0.1,0.5-0.4,0.6c-0.7,0.4-1.5,0.9-2.2,1.3c-0.7,0.4-1.5,0.9-2.2,1.3
						c-0.2,0.1-0.5,0.3-0.7,0.4c-0.3,0.1-0.5,0.1-0.8,0c-0.7-0.4-1.4-0.8-2.1-1.2c-0.8-0.5-1.6-0.9-2.4-1.4
						c-0.3-0.2-0.5-0.3-0.8-0.5C0.1,10.4,0,10.2,0,10c0-1.1,0-2.1,0-3.2c0-0.1,0-0.1,0.1,0c1.2,0.7,2.4,1.4,3.7,2.1
						c0.6,0.3,1.2,0.7,1.8,1h0.1c0-0.9,0-1.7,0-2.6c0-0.1,0-0.1-0.1-0.1C5.1,6.8,4.5,6.5,4,6.2C3.4,5.8,2.7,5.4,2.1,5.1
						c-0.7-0.4-1.3-0.8-2-1.2c0.1-0.2,0.2-0.4,0.4-0.5c0.7-0.4,1.3-0.8,2-1.2C3,1.9,3.5,1.6,4,1.3c0.6-0.3,1.1-0.6,1.7-1
						c0.1,0,0.1,0,0.2-0.1C6,0.3,6.1,0.3,6.2,0.3L6.2,0.3z"/>
					<g id="Group">
						<path id="Path_1_" class="st1" d="M0.6,7.6C0.9,7.8,1.2,8,1.5,8.1c0.7,0.4,1.4,0.8,2.1,1.2c0.7,0.4,1.4,0.8,2.1,1.2
							c0.2,0.1,0.4,0.1,0.6,0C7.2,10,8,9.5,8.8,9.1C9,9,9.1,9,9.1,8.8c0.1-0.1,0.1-0.2,0.1-0.3c0-1,0-2.1,0-3.1C9.2,5.2,9.1,5.1,9,5
							C8.2,4.6,7.5,4.1,6.7,3.7C6.5,3.6,6.4,3.5,6.3,3.4C6.1,3.3,6,3.3,5.8,3.4C4.9,3.9,4,4.5,3.1,5H3C2.3,4.6,1.6,4.2,0.9,3.8
							C1,3.7,1.2,3.6,1.3,3.5c1-0.6,2-1.2,3-1.8c0.5-0.3,1.1-0.6,1.6-0.9h0.2C7.2,1.4,8.2,2,9.3,2.7c0.6,0.4,1.3,0.7,1.9,1.1
							c0.1,0.1,0.1,0.1,0.1,0.2v3v2.9c0,0.1,0,0.2-0.1,0.2c-1.2,0.7-2.3,1.3-3.5,2c-0.5,0.3-1.1,0.6-1.6,0.9c-0.1,0-0.2,0-0.2,0
							c-0.5-0.3-1.1-0.6-1.6-0.9c-0.8-0.5-1.6-0.9-2.3-1.4c-0.4-0.2-0.8-0.4-1.2-0.7c-0.1,0-0.1-0.1-0.1-0.2
							C0.6,9.2,0.6,8.5,0.6,7.6C0.6,7.7,0.6,7.7,0.6,7.6L0.6,7.6z"/>
						<path id="Path_2_" class="st1" d="M3.6,5.3C3.9,5.1,4.1,5,4.4,4.8c0.5-0.3,1-0.6,1.5-0.9H6c0.8,0.4,1.6,0.9,2.3,1.3
							C8.2,5.4,8.1,5.5,7.9,5.6C7.3,6,6.6,6.3,6,6.7H5.9C5.2,6.3,4.5,5.8,3.8,5.4C3.7,5.4,3.7,5.4,3.6,5.3L3.6,5.3z"/>
						<path id="Path_3_" class="st1" d="M8.7,5.8v2.7c0,0.1,0,0.1-0.1,0.1C7.9,9,7.1,9.4,6.3,9.9c-0.1,0-0.1,0-0.1,0
							c0-0.9,0-1.8,0-2.6c0,0,0-0.1,0.1-0.1C7.1,6.7,7.9,6.3,8.7,5.8C8.6,5.8,8.7,5.8,8.7,5.8z"/>
					</g>
				</g>
			</g>
		</g>
	</g>
</g>
</svg>

<?xml version="1.0" encoding="UTF-8"?>
<svg width="12px" height="14px" viewBox="0 0 12 14" version="1.1" xmlns="http://www.w3.org/2000/svg" xmlns:xlink="http://www.w3.org/1999/xlink">
    <!-- Generator: Sketch 59 (86127) - https://sketch.com -->
    <title>HDL/Icon/Standard/Service/logz</title>
    <desc>Created with Sketch.</desc>
    <g id="Colors" stroke="none" stroke-width="1" fill="none" fill-rule="evenodd">
        <g id="Service-icons" transform="translate(-120.000000, -1158.000000)">
            <g id="Logz" transform="translate(101.000000, 1141.000000)">
                <g id="HDL/Icon/Standard/Service/logz" transform="translate(19.000000, 17.000000)">
                    <g id="Logz">
                        <path d="M6.2,0.3 C6.6,0.5 7,0.7 7.4,1 C8.2,1.4 9,1.9 9.7,2.4 C10.3,2.7 10.9,3.1 11.5,3.4 C11.7,3.5 11.9,3.8 11.9,4 L11.9,10 C11.9,10.3 11.8,10.5 11.5,10.6 C10.8,11 10,11.5 9.3,11.9 C8.6,12.3 7.8,12.8 7.1,13.2 C6.9,13.3 6.6,13.5 6.4,13.6 C6.1,13.7 5.9,13.7 5.6,13.6 C4.9,13.2 4.2,12.8 3.5,12.4 C2.7,11.9 1.9,11.5 1.1,11 C0.8,10.8 0.6,10.7 0.3,10.5 C0.1,10.4 1.77635684e-15,10.2 1.77635684e-15,10 C1.77635684e-15,8.9 1.77635684e-15,7.9 1.77635684e-15,6.8 C1.77635684e-15,6.7 1.77635684e-15,6.7 0.1,6.8 C1.3,7.5 2.5,8.2 3.8,8.9 C4.4,9.2 5,9.6 5.6,9.9 L5.7,9.9 C5.7,9 5.7,8.2 5.7,7.3 C5.7,7.2 5.7,7.2 5.6,7.2 C5.1,6.8 4.5,6.5 4,6.2 C3.4,5.8 2.7,5.4 2.1,5.1 C1.4,4.7 0.8,4.3 0.1,3.9 C0.2,3.7 0.3,3.5 0.5,3.4 C1.2,3 1.8,2.6 2.5,2.2 C3,1.9 3.5,1.6 4,1.3 C4.6,1 5.1,0.7 5.7,0.3 C5.8,0.3 5.8,0.3 5.9,0.2 C6,0.3 6.1,0.3 6.2,0.3 L6.2,0.3 Z" id="Path" fill="#71B9D9" fill-rule="nonzero"></path>
                        <g id="Group" fill="#FEFEFE" fill-rule="nonzero">
                            <path d="M0.6,7.6 C0.9,7.8 1.2,8 1.5,8.1 C2.2,8.5 2.9,8.9 3.6,9.3 C4.3,9.7 5,10.1 5.7,10.5 C5.9,10.6 6.1,10.6 6.3,10.5 C7.2,10 8,9.5 8.8,9.1 C9,9 9.1,9 9.1,8.8 C9.2,8.7 9.2,8.6 9.2,8.5 C9.2,7.5 9.2,6.4 9.2,5.4 C9.2,5.2 9.1,5.1 9,5 C8.2,4.6 7.5,4.1 6.7,3.7 C6.5,3.6 6.4,3.5 6.3,3.4 C6.1,3.3 6,3.3 5.8,3.4 C4.9,3.9 4,4.5 3.1,5 L3,5 C2.3,4.6 1.6,4.2 0.9,3.8 C1,3.7 1.2,3.6 1.3,3.5 C2.3,2.9 3.3,2.3 4.3,1.7 C4.8,1.4 5.4,1.1 5.9,0.8 L6.1,0.8 C7.2,1.4 8.2,2 9.3,2.7 C9.9,3.1 10.6,3.4 11.2,3.8 C11.3,3.9 11.3,3.9 11.3,4 L11.3,7 L11.3,9.9 C11.3,10 11.3,10.1 11.2,10.1 C10,10.8 8.9,11.4 7.7,12.1 C7.2,12.4 6.6,12.7 6.1,13 C6,13 5.9,13 5.9,13 C5.4,12.7 4.8,12.4 4.3,12.1 C3.5,11.6 2.7,11.2 2,10.7 C1.6,10.5 1.2,10.3 0.8,10 C0.7,10 0.7,9.9 0.7,9.8 C0.6,9.2 0.6,8.5 0.6,7.6 C0.6,7.7 0.6,7.7 0.6,7.6 L0.6,7.6 Z" id="Path"></path>
                            <path d="M3.6,5.3 C3.9,5.1 4.1,5 4.4,4.8 C4.9,4.5 5.4,4.2 5.9,3.9 L6,3.9 C6.8,4.3 7.6,4.8 8.3,5.2 C8.2,5.4 8.1,5.5 7.9,5.6 C7.3,6 6.6,6.3 6,6.7 L5.9,6.7 C5.2,6.3 4.5,5.8 3.8,5.4 C3.7,5.4 3.7,5.4 3.6,5.3 L3.6,5.3 Z" id="Path"></path>
                            <path d="M8.7,5.8 L8.7,8.5 C8.7,8.6 8.7,8.6 8.6,8.6 C7.9,9 7.1,9.4 6.3,9.9 C6.2,9.9 6.2,9.9 6.2,9.9 C6.2,9 6.2,8.1 6.2,7.3 C6.2,7.3 6.2,7.2 6.3,7.2 C7.1,6.7 7.9,6.3 8.7,5.8 C8.6,5.8 8.7,5.8 8.7,5.8 Z" id="Path"></path>
                        </g>
                    </g>
                </g>
            </g>
        </g>
    </g>
</svg>
